X:1
T:The Campbells are Comin'
M:6/8
L:1/8
K:F
 z4 z F| Acd cAF| G2 G G2 F| Acd cAF| A2 A A2 A| Acd cAF| G3/2 A/2 G f3/2 g/2 a|\
 fdf cAF| A2 A A2 c| f2 f f3/2 g/2 a| c2 c c3/2 A/2- F| f2 f f3/2 g/2 a|\
 d2 d d2 c|c-d ef-e d| c3/2 d/2 e f3/2 g/2 a| f3/2- d/2 f c3/2- A/2 F|\
 A2 A A2 z|
